X:11518
T:Mueira de Tormaleo
R:Mueira
C:Tradicional
S:Msica Tradicional Asturiana, (C) Tello & Tito. Asturies, 2001.
S:http://pagina.de/MusTradAst <telloytito@asturies.org>
O:Tormaleo
A:Asturies
M:6/8
L:1/8
Q:3/8=120
K:D
|: f2f f2f|f2e d3|c3 e2e|e2e e2d|c3 B3 :|
|B2c d2d|d2c c3|B3 B2c|d2e f2g|g3 f3|e2e e2e|e2d c3|B3 B2 z|
|: Bcd d2d|c2B c3|Bcd e2e|e2d c3|Bcd d2d|c2B c3|c3 d2c|d2c B3 :|
